Papirus/48x48/devices/computer-laptop.svg

<?xml version="1.0" encoding="UTF-8" standalone="no"?>
<svg xmlns="http://www.w3.org/2000/svg" height="48" width="48" version="1">
 <path fill="#6d6d6d" d="m44 34v-24c0-1.108-0.892-2-2-2h-36c-1.108 0-2 0.892-2 2v24c0 1.108 0.892 2 2 2h36c1.108 0 2-0.892 2-2z"/>
 <path fill="#4d4d4d" d="m41 33v-22h-34v22z"/>
 <path opacity=".2" fill="#fff" d="m6 8c-1.108 0-2 0.892-2 2v1c0-1.108 0.892-2 2-2h36c1.108 0 2 0.892 2 2v-1c0-1.108-0.892-2-2-2z"/>
 <rect ry="2" rx="2" transform="matrix(0,-1,-1,0,0,0)" height="44" width="4" y="-46" x="-40" fill="#7e7e7e"/>
 <path opacity=".2" d="m2.0703 38.5c-0.0413 0.161-0.0703 0.326-0.0703 0.5 0 1.108 0.892 2 2 2h40c1.108 0 2-0.892 2-2 0-0.17384-0.02901-0.33941-0.07031-0.5-0.222 0.863-0.996 1.5-1.93 1.5h-40c-0.9342 0-1.7077-0.637-1.9297-1.5z"/>
 <path opacity=".2" d="m4 34v1c0 1.108 0.892 2 2 2h36c1.108 0 2-0.892 2-2v-1c0 1.108-0.892 2-2 2h-36c-1.108 0-2-0.892-2-2z"/>
</svg>

<svg xmlns="http://www.w3.org/2000/svg" width="48" height="48" version="1">
 <rect style="opacity:0.2" width="4" height="44" x="-41" y="-46" rx="2" ry="2" transform="matrix(0,-1,-1,0,0,0)"/>
 <rect fill="#7e7e7e" width="4" height="44" x="-40" y="-46" rx="2" ry="2" transform="matrix(0,-1,-1,0,0,0)"/>
 <rect style="opacity:0.2" width="40" height="28" x="4" y="9" rx="2" ry="2"/>
 <rect style="fill:#8e8e8e" width="40" height="28" x="4" y="8" rx="2" ry="2"/>
 <rect style="fill:#4d4d4d" width="34" height="22" x="7" y="11"/>
 <path style="opacity:0.2;fill:#ffffff" d="M 6 8 C 4.892 8 4 8.892 4 10 L 4 11 C 4 9.892 4.892 9 6 9 L 42 9 C 43.108 9 44 9.892 44 11 L 44 10 C 44 8.892 43.108 8 42 8 L 6 8 z"/>
</svg>
